!!!ONB: MCCC : IFM0076_05 : Extracted Monophonic Melody
!!!COM: Mendelssohn, Felix
!!!OPR: Lieder ohne Worte
!!!OMV: 5
!!!SCT: Op.30
!!!ODT: 1833///
**kern
*staff1
*clefG2
*k[f#c#g#]
*A:
*M1/4
=2
8f#
8g
=3
*M2/4
8a
8b
8a
8g
=4
4f#
8a
8b
=5
8cc#
8dd
8cc#
8b
=6
8ee
8ff#
16ee
16dd#
16cc#
16b
=7
8dd
8ee
16dd
16cc#
16b
16cc#
=8
8dd
8cc#
8b
8ee
=9
8dd
8cc#
8.b
16b
=10
16a#
16b
16cc#
16dd
16ff#
16ee
16dd
16cc#
=11
16ee
16dd
16f#
16g#
8b
8a[
=12
4a]
4r
=13
*M1/4
4r
=14
8f#
8g
=15
*M2/4
8a
8b
8a
8g
=16
4f#
8a
8b
=17
8cc#
8dd
8cc#
8b
=18
8ee
8ff#
16ee
16dd#
16cc#
16b
=19
8dd
8ee
16dd
16cc#
16b
16cc#
=20
8dd
8cc#
8b
8ee
=21
8dd
8cc#
8.b
16b
=22
16a#
16b
16cc#
16dd
16ff#
16ee
16dd
16cc#
=23
16ee
16dd
16f#
16g#
8b
8a[
=24
4a]
4r
=25
*M1/4
4r
=26
8cc
8cc
=27
*M2/4
4b
8cc
8cc
=28
4b
8dd
8dd
=29
4cc#
8dd
8dd
=30
4cc#
8ff#
8ff#
=31
8ff#
8ee
8ee
16dd
16cc#
=32
16b
16cc#
8dd
8cc#
8cc#
=33
8cc#
8b
8b
16a
16g#
=34
16f#
16g#
16a[
16a]
8a
8b
=35
4cc#
8a
8b
=36
4cc#
8a
8b
=37
2cc#[
=38
4cc#]
8f#
8g
=39
8a
8b
8a
8g
=40
4f#
8f#
8g
=41
8a
8b
8cc
8dd
=42
4b
8a
8b
=43
16a
16g#
16f#
16e
8g
8a
=44
16g
16f#
16e
16f#
8g
8f#
=45
8e
8a
8g
8f#
=46
8.e
16e
16d#
16e
16f#
16g
=47
16b
16a
16g
16f#
16a
16g
16e
16c#
=48
8.a
16ff#
16dd#
16ee
16ff#
16gg
=49
16bb
16aa
16gg
16ff#
16ee
16dd
16cc#
16b
=50
8a
8dd
8f#
8g
=51
8a
8b
8.e
16f#
=52
4d
8dd
8b
=53
4a
8dd
8b
=54
4a
8dd
8b
=55
8a
8f#
8g
8e
=56
4d
8ddd
8bb
=57
8aa
8ff#
8gg
8ee
=58
4dd
4r
=59
2r
=60
2ff#
==
*-
